remix/System/delete-bin-4-fill.svg

<svg viewBox="0 0 24 24" xmlns="http://www.w3.org/2000/svg"><path fill="none" d="M0 0h24v24H0Z"/><path d="M20 7v14 0c0 .55-.45 1-1 1H5v0c-.56 0-1-.45-1-1V7H2V5h20v2h-2Zm-9 3v7h2v-7h-2ZM7 2h10v2H7V2Z"/></svg>

<svg viewBox="0 0 24 24" fill="currentColor" xmlns="http://www.w3.org/2000/svg"><path d="M20 7V21C20 21.5523 19.5523 22 19 22H5C4.44772 22 4 21.5523 4 21V7H2V5H22V7H20ZM11 10V17H13V10H11ZM7 2H17V4H7V2Z"/></svg>
